svgs/solid/messages.svg

<svg xmlns="http://www.w3.org/2000/svg" viewBox="0 0 640 512"><!-- Font Awesome Pro 6.0.0-alpha2 by @fontawesome - https://fontawesome.com License - https://fontawesome.com/license (Commercial License) --><path d="M416 256.004V63.994C416 28.748 387.25 0 352 0H64C28.75 0 0 28.748 0 63.994V256.004C0 291.25 28.75 320 64 320L96 320.018V374.264C96 382.262 105.125 386.887 111.5 382.139L194.25 320.018L352 319.875C387.25 320 416 291.25 416 256.004ZM576 128H448V256C448 308.871 404.875 351.992 352 351.992H256V383.969C256 419.215 284.75 447.963 320 447.963H445.75L528.5 510.082C534.875 514.832 544 510.207 544 502.209V447.963H576C611.25 447.963 640 419.215 640 383.969V191.994C640 156.748 611.25 128 576 128Z"/></svg>

<svg xmlns="http://www.w3.org/2000/svg" viewBox="0 0 640 512"><!--! Font Awesome Pro 6.4.0 by @fontawesome - https://fontawesome.com License - https://fontawesome.com/license (Commercial License) Copyright 2023 Fonticons, Inc. --><path d="M64 0C28.7 0 0 28.7 0 64V256c0 35.3 28.7 64 64 64H96v48c0 6.1 3.4 11.6 8.8 14.3s11.9 2.1 16.8-1.5L202.7 320H352c35.3 0 64-28.7 64-64V64c0-35.3-28.7-64-64-64H64zM352 352H256v32c0 35.3 28.7 64 64 64H437.3l81.1 60.8c4.8 3.6 11.3 4.2 16.8 1.5s8.8-8.2 8.8-14.3V448h32c35.3 0 64-28.7 64-64V192c0-35.3-28.7-64-64-64H448V256c0 53-43 96-96 96z"/></svg>
